static/logos/zeplin-glyph-color.svg

<svg width="50" height="40" viewBox="0 0 50 40" fill="none" xmlns="http://www.w3.org/2000/svg">
<g clip-path="url(#clip0_1_302)">
<path d="M7.70782 27.5553L5.09231 28.5109L4.95312 36.291L14.0066 32.9837C10.8988 31.9429 8.63228 30.1085 7.70782 27.5553" fill="#FDBD39"/>
<path d="M9.07637 19.3265L0 22.6421L5.09182 28.513L7.70733 27.5574C6.78494 25.0125 7.35416 22.1394 9.07637 19.3265Z" fill="#F69833"/>
<path d="M24.3449 8.09786C12.7881 12.3192 5.33629 21.032 7.70458 27.5552L49.5548 12.2673C47.1865 5.74412 35.9018 3.87649 24.3449 8.09786" fill="#FECF33"/>
<path d="M32.9129 31.7268C44.4698 27.5054 51.9341 18.8321 49.5533 12.2694L7.70312 27.5553C10.0839 34.12 21.3561 35.9482 32.9129 31.7268Z" fill="#EE6723"/>
<path d="M49.559 12.2673L7.71094 27.5553C8.52945 29.8155 11.656 30.929 16.0394 30.929C20.3148 30.929 25.7868 29.8716 31.4915 27.7879C43.0483 23.5666 51.1774 16.7297 49.559 12.2673" fill="#F69833"/>
<path d="M41.2249 8.89563C36.9516 8.89563 31.4775 9.95305 25.7728 12.0367C14.216 16.2581 6.08695 23.0929 7.70528 27.5553L49.5555 12.2673C48.7349 10.0071 45.6104 8.89563 41.2249 8.89563" fill="#FDBD39"/>
<path d="M38.9181 36.7043C37.6862 36.7043 35.8705 35.5929 33.5189 33.3991C30.7372 30.8044 27.5524 27.0026 24.5464 22.6961C21.5424 18.3895 19.0744 14.0851 17.5952 10.5721C15.9852 6.74544 15.7546 4.39377 16.9117 3.57941C17.1797 3.3966 17.4976 3.30311 17.8217 3.31142C18.7628 3.31142 20.5992 4.01152 23.9917 7.35206L24.0665 7.42477L24.0561 7.52864C24.0332 7.76962 24.0125 8.01061 23.9938 8.24952L23.9564 8.7211L23.624 8.38663C19.9677 4.70331 18.3597 4.30652 17.8362 4.30652C17.6866 4.30652 17.5682 4.3356 17.483 4.39585C16.9803 4.74902 16.9471 6.47745 18.5093 10.1857C19.9614 13.6343 22.3941 17.8743 25.3586 22.1248C28.3252 26.3773 31.4622 30.1209 34.1961 32.6699C37.1419 35.4184 38.4694 35.7154 38.9036 35.7154C39.0532 35.7154 39.1737 35.6843 39.2651 35.6199C39.7948 35.248 39.7948 33.397 38.0539 29.4042L37.9729 29.2213L38.1474 29.1258C38.3219 29.0302 38.4923 28.9367 38.6502 28.8453L38.86 28.7269L38.9576 28.9471C40.1916 31.7766 41.3467 35.3727 39.8322 36.4363C39.5642 36.6191 39.2443 36.7126 38.9181 36.7043ZM38.9181 36.268V36.4862V36.268Z" fill="#EE6723"/>
<path d="M33.1983 31.6063L33.1817 31.8223C32.8888 35.4371 32.1201 39.7831 30.1133 39.9597C30.0717 39.9639 30.0302 39.9639 29.9907 39.9639C28.6279 39.9639 27.3378 38.0111 26.1599 34.1615C25.0422 30.5177 24.1759 25.6274 23.721 20.3901C23.2639 15.1529 23.2702 10.1857 23.7397 6.4027C24.2507 2.28104 25.223 0.128804 26.6315 0.00415715C26.673 2.25212e-06 26.7167 -0.0020752 26.7582 -0.0020752C27.7471 -0.0020752 29.2366 1.11767 30.7614 6.33206L29.7664 6.52319C29.2574 4.78229 28.7027 3.36547 28.1522 2.38907C27.6432 1.48953 27.1467 0.993022 26.7582 0.993022C26.7457 0.993022 26.7333 0.993022 26.7187 0.995099C26.108 1.04911 25.2188 2.52826 24.7244 6.52526C24.2632 10.2397 24.257 15.1342 24.7078 20.3029C25.1586 25.4737 26.0103 30.2913 27.1072 33.8686C27.5975 35.4703 28.1356 36.7916 28.6653 37.687C29.1514 38.5138 29.623 38.9688 29.9907 38.9688C30.0032 38.9688 30.0156 38.9688 30.0281 38.9667C30.6119 38.9168 31.7129 37.3754 32.1762 31.9553L33.1983 31.6063Z" fill="#EE6723"/>
</g>
<defs>
<clipPath id="clip0_1_302">
<rect width="50" height="39.9659" fill="white"/>
</clipPath>
</defs>
</svg>

<svg xmlns="http://www.w3.org/2000/svg" width="80" height="64" fill="none" viewBox="0 0 50 40"><g clip-path="url(#a)"><path fill="#FDBD39" d="m7.708 27.555-2.616.956-.139 7.78 9.054-3.307c-3.108-1.041-5.375-2.876-6.3-5.429"/><path fill="#F69833" d="M9.076 19.326 0 22.642l5.092 5.871 2.615-.956c-.922-2.544-.353-5.418 1.37-8.23Z"/><path fill="#FECF33" d="M24.345 8.098C12.788 12.319 5.336 21.032 7.705 27.555l41.85-15.288c-2.368-6.523-13.653-8.39-25.21-4.17"/><path fill="#EE6723" d="M32.913 31.727c11.557-4.222 19.021-12.895 16.64-19.458L7.703 27.555c2.38 6.565 13.653 8.393 25.21 4.172Z"/><path fill="#F69833" d="M49.559 12.267 7.711 27.555c.818 2.26 3.945 3.374 8.328 3.374 4.276 0 9.748-1.057 15.452-3.141 11.557-4.221 19.686-11.058 18.068-15.52"/><path fill="#FDBD39" d="M41.225 8.896c-4.273 0-9.748 1.057-15.452 3.14-11.557 4.222-19.686 11.057-18.068 15.52l41.85-15.289c-.82-2.26-3.945-3.371-8.33-3.371"/><path fill="#EE6723" d="M38.918 36.704c-1.232 0-3.047-1.111-5.4-3.305-2.78-2.595-5.966-6.396-8.972-10.703-3.004-4.306-5.472-8.61-6.95-12.124-1.61-3.827-1.841-6.178-.684-6.993.268-.182.586-.276.91-.268.94 0 2.777.7 6.17 4.041l.075.073-.01.104c-.024.24-.044.482-.063.72l-.038.472-.332-.334c-3.656-3.684-5.264-4.08-5.788-4.08-.15 0-.268.029-.353.089-.503.353-.536 2.081 1.026 5.79 1.452 3.448 3.885 7.688 6.85 11.939 2.966 4.252 6.103 7.996 8.837 10.545 2.946 2.748 4.273 3.045 4.708 3.045.15 0 .27-.03.361-.095.53-.372.53-2.223-1.211-6.216l-.081-.183.174-.095c.175-.096.345-.19.503-.28l.21-.12.098.221c1.234 2.83 2.389 6.426.874 7.49a1.552 1.552 0 0 1-.914.267Zm0-.436v.218-.218Z"/><path fill="#EE6723" d="m33.198 31.606-.016.216c-.293 3.615-1.062 7.961-3.069 8.138-.041.004-.083.004-.122.004-1.363 0-2.653-1.953-3.831-5.803-1.118-3.643-1.984-8.534-2.439-13.77-.457-5.238-.45-10.205.019-13.988.51-4.122 1.483-6.274 2.892-6.399.041-.004.085-.006.126-.006.99 0 2.479 1.12 4.003 6.334l-.995.191c-.509-1.74-1.063-3.158-1.614-4.134-.509-.9-1.005-1.396-1.394-1.396-.012 0-.025 0-.04.002-.61.054-1.5 1.533-1.994 5.53-.46 3.715-.467 8.61-.016 13.778.45 5.17 1.302 9.988 2.4 13.566.49 1.601 1.028 2.923 1.557 3.818.486.827.958 1.282 1.326 1.282.012 0 .025 0 .037-.002.584-.05 1.685-1.592 2.148-7.012l1.022-.349Z"/></g><defs><clipPath id="a"><path fill="#fff" d="M0 0h50v39.966H0z"/></clipPath></defs></svg>
